X: 20
T: Muileann Dubh
T: the Black Snuff Mill
T: the Oyster Wives Rant
R: reel
B: RSCDS 3-11(b)
Z: 1997 by John Chambers <jc:trillian.mit.edu>
M: C|
L: 1/8
K: ADor
|: g | "Am"edef g2fe | "G"dGdB dGGg | "Am"edef g2fe | "G"dBgB "Am"A2-A :|
a | "Am"eAed eAAB | "G"dGdB dGGd |  "Am"eAed eAAB | "G"dGdB "Am"A2-A ||
a | "Am"eAed eAAB | "G"dGdB dGGd |  "Am"edef "Em"gbeg | "G"dBgB "Am"A2-A |]
%%sep 2 1 500
